X:0982
M:C
L:1/8
Q:1/4=108
K:D
d| F2        F2  (A>B)(AF)|(d>B)(A>F) E3 D|(AB)(de) ({de})(f>e)(dA)   |B2(BA) F3
   de````````fe   dc```AF | G2   F2   E2fe| d2  cB         AF  (DE/G/)|F2 E2  D3 |]

